X: 18
T:Reel of Rio, The
M:C|
L:1/8
C:Sean Ryan (-1985)
R:reel
K:G
DEGA ~B3d|eg~g2 agef|gede gedB|c2BA GE~E2|
DEGA ~B3d|eg~g2 agef|gede gedB|1 c2BA ~G3E:|2 c2BA GABc||
dg~g2 ag~g2|bgag edBd|edBA GABd|gedB ABGE|
DEGA ~B3d|eg~g2 agef|gede gedB|1 c2BA GABc:|2 c2BA ~G3E||

